X: 22
T: the FINE COMPANION
B: "FIFTY OLD ENGLISH FOLK DANCE AIRS", Edgar H. Hunt ed., Schott & Co. Ltd. pub., London 1939
Z: 2004-2014 John Chambers <jc:trillian.mit.edu>
M: 6/8
L: 1/8
K: Dm
|:\
d2f dda | c>de f>ed | (a2g) a(ag) | (ae2- e2)d | eee (e2d) | c>de A2e |
(f2d) c>de |[1 d3 f3 :|[2 d3 f2 |: d | (cA)A e2d | (cA)B A2e | (fd)e fde |
f3 g3 | aaa c>de | f(fe) (fd)a | c(cd) (ec)A |[1 d3 f2 :|[2 d3 f3 |]

%%sep 1 1 500
%%sep 1 1 500
